public/avatar/shoe/25.svg

<svg xmlns:xlink="http://www.w3.org/1999/xlink" height="38.3" width="36.05" xmlns="http://www.w3.org/2000/svg"><use height="20.35" transform="translate(7.7 7.65)" width="23.55" xlink:href="#a"/><defs><use height="20.35" width="23.55" xlink:href="#b" id="a"/><g id="b"><path d="M22.65 15.6q-.2 1.3-2.55 2.05-.4.1-.8-.2l2.05-.45 1.3-1.4m-5.6-14.2-1.9-.4-3.05 1.15-2-1.85q1.4.25 2 1.85l2.95-1.5 2 .75" fill="#cc8d69" fill-rule="evenodd" transform="translate(.4 .5)"/><path d="m21.1 8.95.55 2.2h-.05l-.5-2.2" fill="#7de8ff" fill-rule="evenodd" transform="translate(.4 .5)"/><path d="m21.65 11.15.15-.05.85 4.5-1-4.45" fill="#875d37" fill-rule="evenodd" transform="translate(.4 .5)"/><path d="M19.15 7.2Q17.9 5.8 16 5.85q-1.1.05-2 .95-1.1 1.1-1.55 1.25-1.4.4-4.4-1.95 3 2.35 4.4 1.95Q12.9 7.9 14 6.8q.9-.9 2-.95 1.9-.05 3.15 1.35m-13.6 7.6-3.7-.45 3.7.45" fill="#ec5394" fill-rule="evenodd" transform="translate(.4 .5)"/><path d="M21.6 11.15h.05l1 4.45-1.3 1.4-2.05.45-1.15-2.25L17 17.65q-2.45 1.2-5.05 1.25-5.7.8-11.4-1.05l.35-1.3q8.5 1.3 11.2 1 2.6-.3 5.45-5.55l4.05-.85" fill="#facbe3" fill-rule="evenodd" transform="translate(.4 .5)"/><path d="M8.05 6.1q3 2.35 4.4 1.95Q12.9 7.9 14 6.8q.9-.9 2-.95 1.9-.05 3.15 1.35m-17.3 7.15 3.7.45" fill="none" stroke="#f5adcf" stroke-linecap="round" stroke-linejoin="round" transform="translate(.4 .5)"/><path d="m20.8 7.85.3 1.1.55 2.2 1 4.45q-.2 1.3-2.55 2.05-.4.1-.8-.2l-.45-.5-.15-.3-.65-1.15-.55 1.95-.8.8-5.45 1.1-5.8-.3-4.75-.8-.2-.15-.15-.25q-.2-.5-.25-1.5 0-1.65.35-2.15Q4 11.8 5.5 9.8l.4-.6.05-.1.05-.05q.6-1.2.95-4.35.4-3.25 1.1-4.15.8-.95 2.05-.25l2 1.85L15.15 1l1.9.4.6.2.2.1.95.4.1.05q.45.35 1.4 3.75l.25.95.25 1" fill="none" stroke="#000" stroke-linecap="round" stroke-linejoin="round" transform="translate(.4 .5)"/></g></defs></svg>

<?xml version="1.0" encoding="UTF-8" standalone="no"?>
<svg xmlns:xlink="http://www.w3.org/1999/xlink" height="38.3px" width="36.05px" xmlns="http://www.w3.org/2000/svg">
  <g transform="matrix(1.0, 0.0, 0.0, 1.0, 23.8, 14.85)">
    <use height="20.35" transform="matrix(1.0, 0.0, 0.0, 1.0, -16.1, -7.2)" width="23.55" xlink:href="#sprite0"/>
  </g>
  <defs>
    <g id="sprite0" transform="matrix(1.0, 0.0, 0.0, 1.0, 0.4, 0.5)">
      <use height="20.35" transform="matrix(1.0, 0.0, 0.0, 1.0, -0.4, -0.5)" width="23.55" xlink:href="#shape0"/>
    </g>
    <g id="shape0" transform="matrix(1.0, 0.0, 0.0, 1.0, 0.4, 0.5)">
      <path d="M22.65 15.6 Q22.45 16.9 20.1 17.65 19.7 17.75 19.3 17.45 L21.35 17.0 22.65 15.6 M17.05 1.4 L15.15 1.0 12.1 2.15 10.1 0.3 Q11.5 0.55 12.1 2.15 L15.05 0.65 17.05 1.4" fill="#cc8d69" fill-rule="evenodd" stroke="none"/>
      <path d="M21.1 8.95 L21.65 11.15 21.6 11.15 21.1 8.95" fill="#7de8ff" fill-rule="evenodd" stroke="none"/>
      <path d="M21.65 11.15 L21.8 11.1 22.65 15.6 21.65 11.15" fill="#875d37" fill-rule="evenodd" stroke="none"/>
      <path d="M19.15 7.2 Q17.9 5.8 16.0 5.85 14.9 5.9 14.0 6.8 12.9 7.9 12.45 8.05 11.05 8.45 8.05 6.1 11.05 8.45 12.45 8.05 12.9 7.9 14.0 6.8 14.9 5.9 16.0 5.85 17.9 5.8 19.15 7.2 M5.55 14.8 L1.85 14.35 5.55 14.8" fill="#ec5394" fill-rule="evenodd" stroke="none"/>
      <path d="M21.6 11.15 L21.65 11.15 22.65 15.6 21.35 17.0 19.3 17.45 18.15 15.2 17.0 17.65 Q14.55 18.85 11.95 18.9 6.25 19.7 0.55 17.85 L0.9 16.55 Q9.4 17.85 12.1 17.55 14.7 17.25 17.55 12.0 L21.6 11.15" fill="#facbe3" fill-rule="evenodd" stroke="none"/>
      <path d="M8.05 6.1 Q11.05 8.45 12.45 8.05 12.9 7.9 14.0 6.8 14.9 5.9 16.0 5.85 17.9 5.8 19.15 7.2 M1.85 14.35 L5.55 14.8" fill="none" stroke="#f5adcf" stroke-linecap="round" stroke-linejoin="round" stroke-width="1.0"/>
      <path d="M20.8 7.85 L21.1 8.95 21.65 11.15 22.65 15.6 Q22.45 16.9 20.1 17.65 19.7 17.75 19.3 17.45 L18.85 16.95 18.7 16.65 18.05 15.5 17.5 17.45 16.7 18.25 11.25 19.35 5.45 19.05 0.7 18.25 0.5 18.1 0.35 17.85 Q0.15 17.35 0.1 16.35 0.1 14.7 0.45 14.2 4.0 11.8 5.5 9.8 L5.9 9.2 5.95 9.1 6.0 9.05 Q6.6 7.85 6.95 4.7 7.35 1.45 8.05 0.55 8.85 -0.4 10.1 0.3 L12.1 2.15 15.15 1.0 17.05 1.4 17.65 1.6 17.85 1.7 18.8 2.1 18.9 2.15 Q19.35 2.5 20.3 5.9 L20.55 6.85 20.8 7.85" fill="none" stroke="#000000" stroke-linecap="round" stroke-linejoin="round" stroke-width="1.0"/>
    </g>
  </defs>
</svg>
